X:20
T:Boy in the Boat
R:reel
M:2/2
Q:1/2=90
%
% tick
%
K:D
| A8 | A4 A4 |
% #1
|: ABAF DFAF | GFEF G2FG | ADED ADED | AFGE DEFG |
   ABAF DFAF | GFEF G2FG | AFA=c BGBd |1 cAGE DEFG :|2 cAGE D2d2
|: cded cAAA | cAdB cAAd | cded cAAd | cAGE EDD2 |
   cded cAAA | cAdB cAB/c/d | effd eged |1 cAGE EDD2 :|2 cAGE DEFG |
% #2
|: ABAF DFAF | GFEF G2FG | ADED ADED | AFGE DEFG |
   ABAF DFAF | GFEF G2FG | AFA=c BGBd |1 cAGE DEFG :|2 cAGE D2d2
|: cded cAAA | cAdB cAAd | cded cAAd | cAGE EDD2 |
   cded cAAA | cAdB cAB/c/d | effd eged |1 cAGE EDD2 :|2 cAGE DEFG |
% #3
|: ABAF DFAF | GFEF G2FG | ADED ADED | AFGE DEFG |
   ABAF DFAF | GFEF G2FG | AFA=c BGBd |1 cAGE DEFG :|2 cAGE D2d2
|: cded cAAA | cAdB cAAd | cded cAAd | cAGE EDD2 |
   cded cAAA | cAdB cAB/c/d | effd eged |1 cAGE EDD2 :|2 cAGE D4 |
%
% #4
|: ABAF DFAF | GFEF G2FG | ADED ADED | AFGE DEFG |
   ABAF DFAF | GFEF G2FG | AFA=c BGBd |1 cAGE DEFG :|2 cAGE D2d2
|: cded cAAA | cAdB cAAd | cded cAAd | cAGE EDD2 |
   cded cAAA | cAdB cAB/c/d | effd eged |1 cAGE EDD2 :|2 cAGE DEFG |
% #5
|: ABAF DFAF | GFEF G2FG | ADED ADED | AFGE DEFG |
   ABAF DFAF | GFEF G2FG | AFA=c BGBd |1 cAGE DEFG :|2 cAGE D2d2
|: cded cAAA | cAdB cAAd | cded cAAd | cAGE EDD2 |
   cded cAAA | cAdB cAB/c/d | effd eged |1 cAGE EDD2 :|2 cAGE DEFG |
% #6
|: ABAF DFAF | GFEF G2FG | ADED ADED | AFGE DEFG |
   ABAF DFAF | GFEF G2FG | AFA=c BGBd |1 cAGE DEFG :|2 cAGE D2d2
|: cded cAAA | cAdB cAAd | cded cAAd | cAGE EDD2 |
   cded cAAA | cAdB cAB/c/d | effd eged |1 cAGE EDD2 :|2 cAGE D4 |
%
% #7
|: ABAF DFAF | GFEF G2FG | ADED ADED | AFGE DEFG |
   ABAF DFAF | GFEF G2FG | AFA=c BGBd |1 cAGE DEFG :|2 cAGE D2d2
|: cded cAAA | cAdB cAAd | cded cAAd | cAGE EDD2 |
   cded cAAA | cAdB cAB/c/d | effd eged |1 cAGE EDD2 :|2 cAGE DEFG |
% #8
|: ABAF DFAF | GFEF G2FG | ADED ADED | AFGE DEFG |
   ABAF DFAF | GFEF G2FG | AFA=c BGBd |1 cAGE DEFG :|2 cAGE D2d2
|: cded cAAA | cAdB cAAd | cded cAAd | cAGE EDD2 |
   cded cAAA | cAdB cAB/c/d | effd eged |1 cAGE EDD2 :|2 cAGE DEFG |
% #9
|: ABAF DFAF | GFEF G2FG | ADED ADED | AFGE DEFG |
   ABAF DFAF | GFEF G2FG | AFA=c BGBd |1 cAGE DEFG :|2 cAGE D2d2
|: cded cAAA | cAdB cAAd | cded cAAd | cAGE EDD2 |
   cded cAAA | cAdB cAB/c/d | effd eged |1 cAGE EDD2 :|2 cAGE D4 |
%

